app/dist/common/images/hooker-furnishings.svg

<svg height="18" viewBox="0 0 18 18" width="18" xmlns="http://www.w3.org/2000/svg"><path d="m0 0h18v18h-18z" fill="#f0f3fa"/><path d="m5.5 6h-2v.15c.5 0 .5.3.5.45v4.8c0 .36-.15.45-.5.45v.15h2v-.15c-.56 0-.5-.3-.5-.45v-2.4h3v2.4c0 .36-.26.45-.5.45v.15h2v-.15c-.56 0-.5-.3-.5-.45v-4.8c0-.24.26-.4.5-.45v-.15h-2v.15c.56 0 .5.3.5.45v2.1h-3v-2.1c0-.36.26-.45.5-.45zm9.5 0h-5v.15c.74 0 1 .3 1 .45v4.5c0 .6-.76.75-1 .75v.15h3v-.15c-.85 0-1-.5-1-.75v-2.1h1.33c.28 0 .43.7.5 1h.17v-2h-.18c0 .36-.32.65-.5.7h-1.32v-2.4h1.59c.85 0 1.17.9 1.23 1.2h.18z"/></svg>

<!-- by TradingView --><svg width="18" height="18" viewBox="0 0 18 18" xmlns="http://www.w3.org/2000/svg"><path fill="#F0F3FA" d="M0 0h18v18H0z"/><path d="M5.5 6h-2v.15c.5 0 .5.3.5.45v4.8c0 .36-.15.45-.5.45V12h2v-.15c-.56 0-.5-.3-.5-.45V9h3v2.4c0 .36-.26.45-.5.45V12h2v-.15c-.56 0-.5-.3-.5-.45V6.6c0-.24.26-.4.5-.45V6h-2v.15c.56 0 .5.3.5.45v2.1H5V6.6c0-.36.26-.45.5-.45V6ZM15 6h-5v.15c.74 0 1 .3 1 .45v4.5c0 .6-.76.75-1 .75V12h3v-.15c-.85 0-1-.5-1-.75V9h1.33c.28 0 .43.7.5 1H14V8h-.18c0 .36-.32.65-.5.7H12V6.3h1.59c.85 0 1.17.9 1.23 1.2H15V6Z"/></svg>
